!!!COM: Bach, Johann Sebastian
!!!OPR: Das wohltemperirte Clavier, Band II
!!!XEN: Well-Tempered Clavier, Volume II
!!!OTL: Prelude in D Minor
!!!OMV: Prelude VI
!!!SCT: BWV 875
!!!SCA: Thematisch-systematisches Verzeichnis der musikalischen Werke Johann Sebastian Bach: Bach-Werke-Verzeichnis (Schmieder)
!!!YOR: Bach Gesellschaft Edition xiv
!!!EED: Walter Hewlett
!!!ENC: Walter Hewlett
!!!CDT: 1685/3//-1750/7/28/
!!!OCY: Deutschland
!!!YEC: Copyright (c) 1994, 2000 Center for Computer Assisted Research in the Humanities
!!!YEM: Rights to all derivative editions reserved
!!!YEM: Refer to licensing agreement for further details
!!!YEN: United States of America
**kern
*I:
*clefG6
*k[b-]
*d:
*M3/4
=1-
*^
8dd\L	4DM\
16cc\L	.
16b-\JJ	.
16a/LL	4DD/
16g/	.
16f/	.
16e/JJ	.
16d/LL	4r
16f/	.
16e/	.
16d/JJ	.
=2	=2
16b-/LL	8r
16g/	.
16d/	8DD/L
16g/JJ	.
16b-/LL	8GG/
16g/	.
16d/	8BB-/J
16g/JJ	.
16b-/LL	4D\
16g/	.
16d/	.
16g/JJ	.
=3	=3
16a/LL	8r
16g/	.
16d/	8DD/L
16g/JJ	.
16a/LL	8FF/
16f/	.
16d/	8AA/J
16f/JJ	.
16a/LL	4D\
16f/	.
16d/	.
16f/JJ	.
=4	=4
16g/LL	8r
16e/	.
16d/	8B-\L
16e/JJ	.
16g/LL	8E\
16e/	.
16c#/	8G\
16e/JJ	.
16g/LL	8C#\
16e/	.
16c#/	8A\J
16e/JJ	.
=5	=5
*^	*
4f/	16r	4D\
.	16d\LL	.
.	16cn\	.
.	16B-\JJ	.
4r	16A\	16r
.	16ryy	16G\LL
.	8ryy	16F\
.	.	16E\JJ
4r	4ryy	16D\LL
.	.	16F\
.	.	16E\
.	.	16D\JJ
=6	=6	=6
*v	*v	*
8r	16B-\LL
.	16G\
8d/L	16D\
.	16G\JJ
8g/	16B-\LL
.	16G\
8b-/J	16D\
.	16G\JJ
4dd\	16B-\LL
.	16G\
.	16D\
.	16G\JJ
=7	=7
8r	16A\LL
.	16G\
8d/L	16D\
.	16G\JJ
8f/	16A\LL
.	16F\
8a/J	16D\
.	16F\JJ
4dd\	16A\LL
.	16F\
.	16D\
.	16F\JJ
=8	=8
8r	16G\LL
.	16E\
8g\L	16D\
.	16E\JJ
8cc#\	16G\LL
.	16E\
8ee\	16C#\
.	16E\JJ
8cc#\	16G\LL
.	16E\
8a\J	16C#\
.	16E\JJ
=9	=9
8dd\L	16F\LL
.	16D\
16ccn\L	16E\
16b-\JJ	16F\JJ
16a/LL	16G\LL
16g/	16A\
16f/	16Bn\
16e/JJ	16c#\JJ
8f/L	16d\LL
.	16cn\
[8a/J	16Bn\
.	16A\JJ
=10	=10
16a/LL]	16Bn\LL
16g/	16c\
16a/	16B\
16bn/JJ	16A\JJ
16cc\LL	16G\LL
16dd\	16F\
16ee\	16E\
16ff\JJ	16D\JJ
16gg\LL	8E\L
16ff\	.
16ee\	8G\J
16dd\JJ	.
=11	=11
16ee\LL	8C\L
16cc\	.
16b-\	16D\L
16a\JJ	16E\JJ
16g/LL	16F\LL
16f/	16G\
16e/	16A\
16d/JJ	16B-\JJ
8e/L	16c\LL
.	16B-\
[8g/J	16A\
.	16G\JJ
=12	=12
16g/LL]	16A\LL
16f/	16B-\
16g/	16A\
16a/JJ	16G\JJ
16b-\LL	16F\LL
16cc\	16E-\
16dd\	16D\
16ee-\JJ	16C\JJ
16ff\LL	8D\L
16ee-\	.
16dd\	8F\J
16cc\JJ	.
=13	=13
16dd\LL	8BB-\L
16ff\	.
16dd\	16B-\L
16cc\JJ	16c\JJ
16b-\LL	8d\L
16dd\	.
16b-\	8f\J
16a\JJ	.
16g/LL	8B-\L
16b-/	.
16g/	8d\J
16f/JJ	.
=14	=14
8e\L	16G\LL
.	16B-\
16ee\L	16G\
16ff\JJ	16F\JJ
8gg\L	16E\LL
.	16G\
8bb-\J	16E\
.	16D\JJ
8ee\L	16C#\LL
.	16E\
8gg\J	16C#\
.	16BBn\JJ
=15	=15
16cc#\LL	8AA\L
16gg\	.
16cc#\	16A\L
16bn\JJ	16Bn\JJ
16a\LL	8c#\L
16ee\	.
16a\	8e\J
16g\JJ	.
16f/LL	8A\L
16cc#/	.
16f/	8G\J
16e/JJ	.
=16	=16
8d\L	16F\LL
.	16d\
16dd\L	16F\
16ee\JJ	16E\JJ
8ff\L	16D\LL
.	16A\
8aa\J	16D\
.	16C\JJ
8dd\L	16BB-\LL
.	16F\
8cc\J	16BB-\
.	16AA\JJ
=17	=17
16b-\LL	8GG\L
16gg\	.
16b-\	16G\L
16a\JJ	16A\JJ
16g/LL	8B-\L
16b-/	.
16g/	8d\J
16f/JJ	.
16e-/LL	8G\L
16b-/	.
16e-/	8B-\J
16d/JJ	.
=18	=18
16c#/LL	8A\L
16a/	.
16c#/	8e\J
16Bn/JJ	.
16c#/LL	8A\L
16a/	.
16c#/	8e\J
16a/JJ	.
16c#/LL	8A\L
16a/	.
16c#/	8e\J
16a/JJ	.
=19	=19
16c#/LL	8G\L
16a/	.
16c#/	8e\J
16Bn/JJ	.
16c#/LL	8G\L
16a/	.
16c#/	8e\J
16a/JJ	.
16c#/LL	8G\L
16a/	.
16c#/	8e\J
16a/JJ	.
=20	=20
16d/LL	8F\L
16a/	.
16d/	8f\J
16c#/JJ	.
16d/LL	8F\L
16a/	.
16d/	8f\J
16a/JJ	.
16d/LL	8F\L
16a/	.
16d/	8f\J
16a/JJ	.
*	*clefG6
=21	=21
16e/LL	8c#/L
16a/	.
16e/	8g/J
16d/JJ	.
16e/LL	8c#/L
16a/	.
16e/	8g/J
16a/JJ	.
16e/LL	8c#/L
16a/	.
16e/	8g/J
16a/JJ	.
=22	=22
32f/LLL	8d/L
32a/	.
32bn/	.
32cc#/J	.
16dd/	8f/J
16a/JJ	.
16f/LL	8d/L
16a/	.
16dd/	8f/J
16a/JJ	.
16f/LL	8d/L
16a/	.
16dd/	8f/J
16a/JJ	.
=23	=23
16f#/LL	8c/L
16dd/	.
16f#/	8a/J
16e/JJ	.
16f#/LL	8c/L
16dd/	.
16f#/	8a/J
16dd/JJ	.
16f#/LL	8c/L
16dd/	.
16f#/	8a/J
16dd/JJ	.
=24	=24
32g/LLL	8Bn/L
32a/	.
32bn/	.
32cc/J	.
16dd/	8g/J
16b/JJ	.
16g/LL	8B/L
16b/	.
16dd/	8g/J
16b/JJ	.
16g/LL	8B/L
16b/	.
16dd/	8g/J
16b/JJ	.
=25	=25
16g#/LL	8e/L
16dd/	.
16g#/	8bn/J
16f#/JJ	.
16g#/LL	8e/L
16dd/	.
16g#/	8b/J
16dd/JJ	.
16g#/LL	8e/L
16dd/	.
16g#/	8b/J
16dd/JJ	.
*	*clefG6
=26	=26
*^	*
4cc/	16r	4A\
.	16a\LL	.
.	16gn\	.
.	16fn\JJ	.
4r	16e\	16r
.	16ryy	16d\LL
.	8ryy	16c\
.	.	16Bn\JJ
4r	4ryy	16A\LL
.	.	16c\
.	.	16B\
.	.	16A\JJ
=27	=27	=27
*v	*v	*
8r	16f\LL
.	16d\
8a\L	16A\
.	16d\JJ
8dd\	16f\LL
.	16d\
8ff\J	16A\
.	16d\JJ
4aa\	16f\LL
.	16d\
.	16A\
.	16d\JJ
=28	=28
8r	16e\LL
.	16d\
8a\L	16A\
.	16d\JJ
8cc\	16e\LL
.	16c\
8ee\J	16A\
.	16c\JJ
4aa\	16e\LL
.	16c\
.	16A\
.	16c\JJ
=29	=29
8r	16d\LL
.	16Bn\
8dd\L	16A\
.	16B\JJ
8gg#\	16d\LL
.	16B\
8bbn\	16G#\
.	16B\JJ
8gg#\	16d\LL
.	16B\
8ee\J	16G#\
.	16B\JJ
=30	=30
8aa\L	8c\L
16ggn\L	8AA\J
16ff\JJ	.
16ee\LL	8C/L
16dd\	.
16cc\	8E/J
16bn\JJ	.
16a\LL	8A\L
16cc\	.
16b\	8c\J
16a\JJ	.
=31	=31
16ff\LL	8d\L
16dd\	.
16a\	8f\J
16dd\JJ	.
16ff\LL	8A\L
16dd\	.
16a\	8d\J
16dd\JJ	.
16ff\LL	8D\L
16dd\	.
16a\	8Bn\J
16dd\JJ	.
=32	=32
16ee\LL	8c\L
16dd\	.
16a\	8e\J
16dd\JJ	.
16ee\LL	8A\L
16cc\	.
16a\	8c\J
16cc\JJ	.
16ee\LL	8C\L
16cc\	.
16a\	8A\J
16cc\JJ	.
=33	=33
16dd\LL	8Bn\L
16bn\	.
16a\	8d\J
16b\JJ	.
16dd\LL	8G#\L
16b\	.
16g#\	8B\J
16b\JJ	.
16dd\LL	8e\L
16b\	.
16g#\	8E\J
16b\JJ	.
=34	=34
[2.cc/	16A/LL
.	16a\
.	16gn\
.	16f\JJ
.	16e\LL
.	16d\
.	16c\
.	16Bn\JJ
.	16A\LL
.	16c\
.	16E\
.	16G\JJ
=35	=35
16cc/LL]	8F#/L
16ee-/	.
16dd/	8a\J
16cc/JJ	.
16ff#/LL	8cc\L
16ee-/	.
16dd/	8a\J
16cc/JJ	.
16aa/LL	8f#\L
16ee-/	.
16dd/	8d\J
16cc/JJ	.
=36	=36
16b-/LL	8g\L
16gg/	.
16ffn/	8G/J
16ee-/JJ	.
16dd/LL	8B-/L
16cc/	.
16b-/	8d\J
16a/JJ	.
16cc/LL	8g\L
16b-/	.
16a/	8f\J
16g/JJ	.
=37	=37
8cc/L	16en\LL
.	16d-\
8een/J	16c\
.	16B-\JJ
8bn/L	16f\LL
.	16d-\
8ff/J	16c\
.	16B-\JJ
8b-/L	16g\LL
.	16d-\
[8gg/J	16c\
.	16B-\JJ
=38	=38
16gg/LL]	16A\LL
16ddn/	16f\
16cc/	16e\
16b-/JJ	16d\JJ
16a/LL	16c\LL
16gg/	16B-\
16ff/	16A\
16ee/JJ	16G\JJ
16dd/LL	16B-\LL
16bb-/	16A\
16ee/	16G\
16dd/JJ	16F\JJ
=39	=39
16cc#/LL	16E/LL
16b-/	16g\
16a/	16f\
16g/JJ	16e\JJ
16dd/LL	16d\LL
16b-/	16g\
16a/	16f\
16g/JJ	16e\JJ
16ee/LL	16c#\LL
16b-/	16g\
16a/	16f\
16g/JJ	16e\JJ
=40	=40
8f/L	16d\LL
.	16e-\
8f#/J	16d\
.	16c\JJ
8g/L	16B-\LL
.	16c\
8a/J	16B-\
.	16A\JJ
8b-\L	16G\LL
.	16A\
8bn\J	16G\
.	16F\JJ
=41	=41
8cc\L	16E\LL
.	16B-\
8cc#\J	16A\
.	16G\JJ
8dd\L	16F\LL
.	16G\
8ee\J	16F\
.	16E\JJ
8ff\L	16D\LL
.	16E-\
8ff#\J	16D\
.	16C\JJ
=42	=42
16gg\LL	8BB-/L
16dd\	.
16bb-\	8GG/J
16aa\JJ	.
16gg\LL	8BB-/L
16ffn\	.
16ee\	8D/J
16dd\JJ	.
16cc#\LL	[4G\
16dd\	.
16ee\	.
16cc#\JJ	.
=43	=43
8a/L	16G/LL]
.	16G/
8e/J	(16AA/
.	16GG/JJ
8a/L	16AA/LL)
.	16G/
8cc#/J	16AA/
.	16G/JJ
[4ee\	16AA/LL
.	16G/
.	16AA/
.	16G/JJ
=44	=44
16ee\LL]	16AA/LL
16a\	16F/
16f\	(16AA/
16a\JJ	16GG/JJ
16dd\LL	16AA/LL)
16a\	16F/
16f\	16AA/
16a\JJ	16F/JJ
[4dd\	16AA/LL
.	16F/
.	16AA/
.	16F/JJ
=45	=45
16dd/LL]	16AA/LL
16g/	16E/
16e/	(16AA/
16g/JJ	16GG/JJ
16cc/LL	16AA/LL)
16g/	16E/
16e/	16AA/
16g/JJ	16E/JJ
[4cc\	16AA/LL
.	16E/
.	16AA/
.	16E/JJ
=46	=46
16cc/LL]	16AA/LL
16f/	16D/
16d/	16F/
16f/JJ	16D/JJ
16b-/LL	16AA/LL
16f/	16D/
16d/	16F/
16f/JJ	16A/JJ
16b-/LL	16GG/LL
16g/	16E/
16e/	16G/
16g/JJ	16B-/JJ
=47	=47
16c#/LL	8G\L
16a/	.
16b-/	8C#\J
16a/JJ	.
16c#/LL	8E/L
16a/	.
16b-/	8GG/J
16a/JJ	.
8c#/L	16r
.	16BB-/LL
[8e/J	16AA/
.	16GG/JJ
=48	=48
16e/LL]	16FF/LL
16a/	16F/
16b-/	16E/
16a/JJ	16F/JJ
16d/LL	16FF/LL
16a/	16F/
16b-/	16E/
16a/JJ	16F/JJ
8d/L	16FF/LL
.	16F/
[8f/J	16E/
.	16D/JJ
=49	=49
16f/LL]	8C#/L
16g/	.
16a/	8EE/J
16g/JJ	.
16e/LL	8GG/L
16g/	.
16a/	8CC#/J
16g/JJ	.
8A/L	16r
.	16C#/LL
[8g/J	16BBn/
.	16AA/JJ
=50	=50
16g/LL]	8D/L
16B-/	.
16A/	8DD/J
16B-/JJ	.
16A/LL	8FF/L
16e/	.
16d/	8AA/J
16c#/JJ	.
16d/LL	[4D\
16g/	.
16f/	.
16e/JJ	.
=51	=51
16f/LL	16D\LL]
16B-/	16G\
16c/	16A\
16d/JJ	16B-\JJ
16e-/LL	16C\LL
16A/	16F#\
16B-/	16G\
16c/JJ	16A\JJ
16d/LL	16BB-\LL
16B-/	16G\
16c/	16A\
16d/JJ	16B-\JJ
=52	=52
16e-/LL	16C\LL
16A/	16F#\
16B-/	16G\
16c/JJ	16A\JJ
16d/LL	16BB-\LL
16B-/	16G\
16c/	16A\
16d/JJ	16B-\JJ
16c/LL	16AA\LL
16F#/	16D\
16G/	16En\
16A/JJ	16F#\JJ
=53	=53
16B-/	16GG\LL
16r	16D\
8r	16E\
.	16F#\JJ
16r	16G\
16A/LL	16r
16B-/	8r
16c/JJ	.
16d/LL	4r
16B-/	.
16g/	.
16d/JJ	.
=54	=54
16b-/LL	4r
16g/	.
16f/	.
16e-/JJ	.
16d/	16r
16r	16c\LL
8r	16B-\
.	16A\JJ
4r	16G\LL
.	16B-\
.	16En\
.	16G\JJ
=55	=55
16r	4C#/
16b-/LL	.
16a/	.
16g/JJ	.
16ee\LL	8r
16dd\	.
16cc#\	8AA/L
16bn\JJ	.
16a/LL	8BBn/
16g/	.
16f/	8C#/J
16e/JJ	.
=56	=56
16f/LL	8D\L
16d/	.
16g/	8E\J
16d/JJ	.
16a/LL	8F\L
16d/	.
16b-/	8G\J
16d/JJ	.
16r	8A\L
16d/LL	.
16e/	8AA\J
16c#/JJ	.
=57	=57
16d/LL	8D\L
16cn/	.
16F#/	8A\J
16c/JJ	.
16d/LL	8D\L
16c/	.
16F#/	8A\J
16c/JJ	.
16d/LL	8D\L
16c/	.
16F#/	8A\J
16c/JJ	.
=58	=58
16B-/LL	8D\L
16d/	.
16B-/	8G\J
16F#/JJ	.
16B-/LL	8D\L
16d/	.
16B-/	8G\J
16F#/JJ	.
16B-/LL	8D\L
16d/	.
16B-/	8G\J
16E/JJ	.
=59	=59
16Fn/LL	8D\L
16d/	.
16F/	8A\J
16d/JJ	.
16F/LL	8D\L
16d/	.
16F/	8A\J
16d/JJ	.
16F/LL	8D\L
16d/	.
16F/	8A\J
16d/JJ	.
=60	=60
16G/LL	8D\L
16c#/	.
16G/	8B-\J
16E/JJ	.
16G/LL	8D\L
16c#/	.
16G/	8B-\J
16E/JJ	.
16G/LL	8D\L
16c#/	.
16G/	8B-\J
16E/JJ	.
=61	=61
2.d;/ 2.F#/	2.A;\ 2.D\
==|!	==|!
*-	*-
!!!RWG: Key is interpreted using the Humdrum key tool.
!!!AFT: stage2
!!!END: 1994/02/02/
!!format changes:
!!content changes:
!!public access: complete
!!!KEY: 1787353149
!!!EMD: Converted from MuseData to Humdrum Dec 19, 2000, by Andreas Kornstaedt using muse2kern.
